; generated by PrusaSlicer 2.6.1+MacOS-arm64 on 2023-12-11 at 00:04:48 UTC


;
;
; 

; external perimeters extrusion width = 0.45mm
; perimeters extrusion width = 0.45mm
; infill extrusion width = 0.45mm
; solid infill extrusion width = 0.45mm
; top infill extrusion width = 0.40mm
; first layer extrusion width = 0.42mm

M73 P0 R141
M73 Q0 S143
M201 X1000 Y1000 Z200 E5000 ; sets maximum accelerations, mm/sec^2
M203 X200 Y200 Z12 E120 ; sets maximum feedrates, mm / sec
M204 S1250 T1250 ; sets acceleration (S) and retract acceleration (R), mm/sec^2
M205 X8.00 Y8.00 Z0.40 E4.50 ; sets the jerk limits, mm/sec
M205 S0 T0 ; sets the minimum extruding and travel feed rate, mm/sec
;TYPE:Custom
M862.3 P "MK3S" ; printer model check
M862.1 P0.4 ; nozzle diameter check
M115 U3.13.1 ; tell printer latest fw version
G90 ; use absolute coordinates
M83 ; extruder relative mode
M104 S215 ; set extruder temp
M140 S60 ; set bed temp
M190 S60 ; wait for bed temp
M109 S215 ; wait for extruder temp
G28 W ; home all without mesh bed level
G80 ; mesh bed leveling

G1 Z0.2 F720
G1 Y-3 F1000 ; go outside print area
G92 E0
G1 X60 E9 F1000 ; intro line
G1 X100 E12.5 F1000 ; intro line

G92 E0
M221 S95

; Don't change E values below. Excessive value can damage the printer.

M907 E538 ; set extruder motor current
G21 ; set units to millimeters
G90 ; use absolute coordinates
M83 ; use relative distances for extrusion
M900 K0.05 ; Filament gcode LA 1.5
M900 K30 ; Filament gcode LA 1.0
M107
;LAYER_CHANGE
;Z:0.2
;HEIGHT:0.2
;BEFORE_LAYER_CHANGE
G92 E0.0
;0.2


G1 E-.8 F2100
G1 Z.4 F720
;AFTER_LAYER_CHANGE
;0.2
G1 X54.5 Y58.861 F10800
G1 Z.2 F720
G1 E.8 F2100
M204 S800
;TYPE:Skirt/Brim
;WIDTH:0.42
G1 F1200
G1 X56.358 Y57.262 E.07686
G1 X57.683 Y56.319 E.05099
G1 X59.079 Y55.469 E.05125
G1 X60.534 Y54.724 E.05125
G1 X62.699 Y53.849 E.07322
G1 X64.291 Y53.364 E.05218
G1 X65.893 Y53.003 E.05149
G1 X67.509 Y52.762 E.05123
G1 X69.139 Y52.64 E.05125
G1 X180.043 Y52.623 E3.47732
G1 X182.396 Y52.752 E.07389
G1 X184.107 Y53.003 E.05422
G1 X186.404 Y53.559 E.0741
G1 X187.953 Y54.084 E.05128
G1 X189.537 Y54.757 E.05396
G1 X191.614 Y55.873 E.07393
G1 X193.055 Y56.827 E.05419
G1 X194.895 Y58.301 E.07392
G1 X196.079 Y59.438 E.05147
G1 X197.228 Y60.72 E.05398
G1 X198.634 Y62.611 E.07388
G1 X199.535 Y64.086 E.05419
G1 X200.577 Y66.208 E.07412
G1 X201.189 Y67.808 E.05371
G1 X201.832 Y70.091 E.07437
G1 X202.145 Y71.785 E.05401
G1 X202.32 Y73.41 E.05125
G1 X202.377 Y75 E.04989
G1 X202.377 Y135 E1.88126
G1 X202.247 Y137.404 E.07549
G1 X201.997 Y139.107 E.05397
G1 X201.415 Y141.488 E.07685
G1 X200.58 Y143.784 E.0766
G1 X199.492 Y145.989 E.07709
G1 X198.173 Y148.055 E.07685
G1 X196.695 Y149.9 E.07412
G1 X195.5 Y151.139 E.05397
G1 X193.642 Y152.738 E.07686
G1 X192.317 Y153.681 E.05099
G1 X190.914 Y154.535 E.0515
G1 X189.459 Y155.279 E.05124
G1 X187.3 Y156.152 E.07302
G1 X185.702 Y156.638 E.05237
G1 X184.107 Y156.997 E.05126
G1 X182.491 Y157.238 E.05123
G1 X180.861 Y157.36 E.05125
G1 X69.226 Y157.363 E3.50024
G1 X66.786 Y157.145 E.07681
G1 X64.389 Y156.662 E.07667
G1 X62.047 Y155.916 E.07707
G1 X59.807 Y154.92 E.07686
G1 X57.69 Y153.687 E.07681
G1 X55.72 Y152.228 E.07686
G1 X53.861 Y150.5 E.07958
G1 X52.267 Y148.648 E.07661
G1 X51.319 Y147.317 E.05124
G1 X50.465 Y145.914 E.0515
G1 X49.721 Y144.459 E.05124
G1 X49.084 Y142.953 E.05127
G1 X48.562 Y141.413 E.05098
G1 X48.149 Y139.823 E.05151
G1 X47.855 Y138.215 E.05125
G1 X47.681 Y136.598 E.05099
G1 X47.623 Y135 E.05014
G1 X47.64 Y74.139 E1.90825
G1 X47.868 Y71.699 E.07684
G1 X48.36 Y69.306 E.0766
G1 X49.113 Y66.973 E.07687
G1 X50.119 Y64.73 E.07708
G1 X51.357 Y62.624 E.0766
G1 X52.828 Y60.653 E.07711
G1 X54.459 Y58.905 E.07496
M204 S1000
; printing object gaizi.stl id:0 copy 0
;WIPE_START
G1 F8640
G1 X56.358 Y57.262 E-.57982
G1 X57.135 Y56.709 E-.22018
;WIPE_END
G1 Z.6 F720
G1 X111.132 Y78.176 F10800
G1 Z.2 F720
G1 E.8 F2100
M204 S800
;TYPE:Perimeter
;WIDTH:0.462317
G1 F1200
G1 X111.028 Y78.313 E.006
;WIDTH:0.488112
G1 X110.846 Y78.633 E.01363
;WIDTH:0.513906
G1 X110.664 Y78.954 E.01445
G1 X110.648 Y78.714 E.00942
;WIDTH:0.482487
G1 X110.638 Y78.205 E.01861
;WIDTH:0.462317
G1 X110.638 Y77.679 E.01834
G1 X110.742 Y77.818 E.00605
G1 X111.088 Y78.135 E.01636
M204 S1000
;WIPE_START
G1 F8640
G1 X111.028 Y78.313 E-.04337
G1 X110.846 Y78.633 E-.085
G1 X110.664 Y78.954 E-.0852
G1 X110.648 Y78.714 E-.05554
G1 X110.638 Y78.205 E-.11755
G1 X110.638 Y77.679 E-.12145
G1 X110.742 Y77.818 E-.04008
G1 X111.088 Y78.135 E-.10835
;WIPE_END
G1 E-.14346 F2100
G1 Z.6 F720
G1 X117.827 Y75.668 F10800
G1 Z.2 F720
G1 E.8 F2100
M204 S800
;WIDTH:0.419999
G1 F1200
G1 X118.349 Y76.51 E.03106
G1 X118.728 Y76.945 E.01809
G1 X118.993 Y77.161 E.01072
G1 X118.662 Y77.299 E.01124
G1 X118.243 Y77.639 E.01692
G1 X117.924 Y78.094 E.01742
G1 X117.828 Y78.318 E.00764
G1 X117.826 Y75.728 E.08121
M204 S1000
;WIPE_START
G1 F8640
G1 X118.349 Y76.51 E-.21723
G1 X118.728 Y76.945 E-.13322
G1 X118.993 Y77.161 E-.07894
G1 X118.662 Y77.299 E-.08281
G1 X118.243 Y77.639 E-.12459
G1 X117.924 Y78.094 E-.12831
G1 X117.864 Y78.233 E-.0349
;WIPE_END
G1 Z.6 F720
G1 X89.733 Y78.687 F10800
G1 Z.2 F720
G1 E.8 F2100
M204 S800
G1 F1200
G1 X89.789 Y78.098 E.01855
G1 X89.79 Y77.553 E.01709
G1 X89.739 Y77.134 E.01323
G1 X90.651 Y77.468 E.03045
G1 X91.412 Y77.708 E.02502
G1 X91.853 Y77.604 E.01421
G1 X92.004 Y77.434 E.00713
G1 X92.059 Y77.301 E.00451
G1 X92.207 Y76.763 E.0175
G1 X92.376 Y76.442 E.01137
G1 X92.581 Y76.237 E.00909
G1 X92.827 Y76.158 E.0081
G1 X93.26 Y76.191 E.01362
G1 X93.454 Y76.297 E.00693
G1 X93.692 Y76.562 E.01117
G1 X93.809 Y76.885 E.01077
G1 X93.896 Y77.48 E.01885
G1 X93.903 Y77.98 E.01568
G1 X93.858 Y78.534 E.01743
G1 X93.724 Y79.011 E.01553
G1 X93.466 Y79.324 E.01272
G1 X93.143 Y79.466 E.01106
G1 X92.756 Y79.476 E.01214
G1 X92.458 Y79.353 E.01011
G1 X92.251 Y79.108 E.01006
G1 X92.092 Y78.609 E.01642
G1 X91.876 Y78.343 E.01074
G1 X91.429 Y78.267 E.01422
G1 X89.792 Y78.673 E.05288
M204 S1000
;WIPE_START
G1 F8640
G1 X89.789 Y78.098 E-.13277
G1 X89.79 Y77.553 E-.12584
G1 X89.739 Y77.134 E-.09746
G1 X90.651 Y77.468 E-.22426
G1 X91.412 Y77.708 E-.18425
G1 X91.561 Y77.673 E-.03542
;WIPE_END
G1 Z.6 F720
G1 X77.177 Y82.024 F10800
G1 Z.2 F720
G1 E.8 F2100
M204 S800
G1 F1200
G1 X77.091 Y82.108 E.00377
G1 X76.847 Y82.182 E.00799
G1 X75.023 Y82.183 E.05719
G1 X74.761 Y82.118 E.00846
G1 X74.561 Y81.943 E.00833
G1 X74.462 Y81.689 E.00855
G1 X74.458 Y74.012 E.24071
G1 X74.509 Y73.782 E.00739
G1 X74.678 Y73.569 E.00853
G1 X74.926 Y73.459 E.00851
G1 X76.819 Y73.451 E.05935
G1 X77.044 Y73.498 E.00721
G1 X77.185 Y73.585 E.00519
G1 X77.679 Y74.335 E.02816
G1 X78.801 Y76.142 E.06669
G1 X78.794 Y74.018 E.0666
G1 X78.878 Y73.72 E.00971
G1 X79.078 Y73.526 E.00874
G1 X79.321 Y73.452 E.00796
G1 X81.145 Y73.451 E.05719
G1 X81.401 Y73.512 E.00825
G1 X81.62 Y73.71 E.00926
G1 X81.711 Y74.017 E.01004
G1 X81.708 Y75.675 E.05199
G1 X81.958 Y75.171 E.01764
G1 X82.4 Y74.595 E.02276
G1 X83.034 Y74.046 E.0263
G1 X83.59 Y73.728 E.02008
G1 X84.38 Y73.458 E.02618
G1 X85.269 Y73.337 E.02813
G1 X86.154 Y73.365 E.02776
G1 X86.989 Y73.538 E.02674
G1 X87.756 Y73.867 E.02617
G1 X88.275 Y74.235 E.01995
G1 X88.525 Y74.437 E.01008
G1 X88.998 Y74.985 E.0227
G1 X89.331 Y75.554 E.02067
G1 X89.39 Y75.696 E.00482
G1 X89.581 Y75.236 E.01562
G1 X89.867 Y74.768 E.0172
G1 X90.277 Y74.295 E.01963
G1 X90.764 Y73.911 E.01945
G1 X91.314 Y73.625 E.01944
G1 X91.852 Y73.455 E.01769
G1 X92.581 Y73.342 E.02313
G1 X93.496 Y73.365 E.0287
G1 X94.287 Y73.543 E.02542
G1 X95.012 Y73.877 E.02503
G1 X95.658 Y74.364 E.02537
G1 X96.119 Y74.891 E.02195
G1 X95.853 Y74.227 E.02243
G1 X95.87 Y73.767 E.01443
G1 X96.099 Y73.524 E.01047
G1 X96.378 Y73.451 E.00904
G1 X98.429 Y73.451 E.06431
G1 X98.693 Y73.516 E.00852
G1 X98.879 Y73.673 E.00763
G1 X99.129 Y74.259 E.01998
G1 X99.443 Y75.077 E.02747
G1 X101.212 Y75.077 E.05547
G1 X101.668 Y73.823 E.04184
G1 X101.827 Y73.591 E.00882
G1 X102.087 Y73.462 E.0091
G1 X103.131 Y73.464 E.03273
G1 X103.63 Y73.531 E.01579
G1 X104.136 Y73.708 E.01681
G1 X104.729 Y73.537 E.01935
G1 X105.226 Y73.475 E.0157
G1 X106.365 Y73.451 E.03572
G1 X110.051 Y73.451 E.11557
G1 X110.292 Y73.505 E.00774
G1 X110.524 Y73.705 E.0096
G1 X110.607 Y73.911 E.00696
G1 X110.617 Y74.968 E.03314
G1 X110.894 Y74.511 E.01676
G1 X111.269 Y74.119 E.01701
G1 X111.649 Y73.855 E.01451
G1 X112.107 Y73.65 E.01573
G1 X112.847 Y73.502 E.02366
G1 X114.595 Y73.451 E.05483
G1 X116.078 Y73.462 E.0465
G1 X116.628 Y73.521 E.01734
G1 X117.216 Y73.675 E.01906
G1 X117.36 Y73.738 E.00493
G1 X117.437 Y73.856 E.00442
G1 X117.515 Y73.738 E.00444
G1 X118.093 Y73.543 E.01913
G1 X118.623 Y73.466 E.01679
G1 X119.673 Y73.451 E.03293
G1 X119.952 Y73.521 E.00902
G1 X120.149 Y73.701 E.00837
G1 X121.506 Y75.72 E.07627
G1 X121.945 Y76.305 E.02293
G1 X122.036 Y76.357 E.00329
G1 X122.036 Y74.016 E.0734
G1 X122.132 Y73.701 E.01033
G1 X122.329 Y73.521 E.00837
G1 X122.602 Y73.451 E.00884
G1 X124.49 Y73.451 E.0592
G1 X124.781 Y73.531 E.00946
G1 X124.96 Y73.847 E.01139
G1 X125.139 Y73.532 E.01136
G1 X125.429 Y73.451 E.00944
G1 X126.142 Y73.462 E.02236
G1 X126.683 Y73.521 E.01706
G1 X127.267 Y73.676 E.01894
G1 X127.435 Y73.754 E.00581
G1 X127.456 Y73.792 E.00136
G1 X127.61 Y73.688 E.00583
G1 X128.103 Y73.527 E.01626
G1 X128.595 Y73.463 E.01556
G1 X129.535 Y73.451 E.02948
G1 X129.806 Y73.516 E.00874
G1 X129.992 Y73.673 E.00763
G1 X130.242 Y74.259 E.01998
G1 X130.556 Y75.077 E.02747
G1 X132.325 Y75.077 E.05547
G1 X132.781 Y73.823 E.04184
G1 X132.94 Y73.591 E.00882
G1 X133.2 Y73.462 E.0091
G1 X135.325 Y73.451 E.06663
G1 X135.596 Y73.52 E.00877
G1 X135.804 Y73.717 E.00898
G1 X135.889 Y73.984 E.00879
G1 X135.852 Y74.222 E.00755
G1 X132.891 Y81.823 E.25577
G1 X132.744 Y82.036 E.00811
G1 X132.507 Y82.165 E.00846
G1 X132.364 Y82.183 E.00452
G1 X130.534 Y82.183 E.05738
G1 X130.297 Y82.131 E.00761
G1 X130.102 Y81.981 E.00771
G1 X129.779 Y81.251 E.02503
G1 X127.878 Y76.497 E.16053
G1 X127.883 Y81.617 E.16053
G1 X127.842 Y81.827 E.00671
G1 X127.665 Y82.063 E.00925
G1 X127.415 Y82.175 E.00859
G1 X125.429 Y82.183 E.06227
G1 X125.264 Y82.158 E.00523
G1 X125.134 Y82.1 E.00446
G1 X124.959 Y81.818 E.01041
G1 X124.785 Y82.1 E.01039
G1 X124.519 Y82.182 E.00873
G1 X120.679 Y82.171 E.1204
G1 X119.637 Y82.041 E.03292
G1 X119.123 Y81.871 E.01697
G1 X118.715 Y81.636 E.01476
G1 X118.41 Y81.376 E.01257
G1 X118.141 Y81.053 E.01318
G1 X117.832 Y80.479 E.02044
G1 X117.834 Y81.617 E.03568
G1 X117.783 Y81.852 E.00754
G1 X117.612 Y82.066 E.00859
G1 X117.365 Y82.175 E.00847
G1 X113.781 Y82.178 E.11237
G1 X113.099 Y82.14 E.02142
G1 X112.562 Y82.05 E.01707
G1 X112.033 Y81.855 E.01768
G1 X111.551 Y81.543 E.018
G1 X111.143 Y81.122 E.01838
;WIDTH:0.445942
G1 X110.95 Y80.804 E.01247
;WIDTH:0.471884
G1 X110.756 Y80.487 E.01326
;WIDTH:0.498322
G1 X110.713 Y80.401 E.00364
;WIDTH:0.52476
G1 X110.669 Y80.316 E.00383
G1 X110.652 Y80.582 E.01068
;WIDTH:0.48984
G1 X110.634 Y80.848 E.00991
;WIDTH:0.45492
G1 X110.617 Y81.115 E.00917
;WIDTH:0.419999
G1 X110.617 Y81.617 E.01574
G1 X110.574 Y81.834 E.00694
G1 X110.388 Y82.072 E.00947
G1 X110.125 Y82.178 E.00889
G1 X104.301 Y82.183 E.18261
G1 X104.039 Y82.119 E.00846
G1 X103.88 Y81.995 E.00632
G1 X103.774 Y81.822 E.00636
G1 X103.735 Y81.617 E.00654
G1 X103.735 Y79.964 E.05183
G1 X103.774 Y79.759 E.00654
G1 X103.89 Y79.574 E.00685
G1 X104.009 Y79.479 E.00477
;WIDTH:0.424132
G1 X104.301 Y79.396 E.00962
;WIDTH:0.432756
G1 X104.569 Y79.392 E.00869
G1 X104.317 Y79.328 E.00843
;WIDTH:0.424132
G1 X104.093 Y79.124 E.0096
;WIDTH:0.419999
G1 X104.004 Y78.82 E.00993
G1 X104.006 Y77.171 E.0517
;WIDTH:0.415545
G1 X104.086 Y76.884 E.00923
;WIDTH:0.454946
G1 X104.158 Y76.791 E.00403
;WIDTH:0.497092
G1 X104.23 Y76.698 E.00444
;WIDTH:0.539238
G1 X104.302 Y76.605 E.00485
G1 X104.561 Y76.599 E.01069
;WIDTH:0.49181
G1 X104.819 Y76.593 E.00963
;WIDTH:0.444381
G1 X105.322 Y76.603 E.01679
;WIDTH:0.423759
G1 X105.382 Y76.604 E.0019
;WIDTH:0.422491
G1 X107.409 Y76.605 E.06398
;WIDTH:0.419605
G1 X107.598 Y76.605 E.00592
G1 X107.598 Y76.229 E.01178
G1 X107.41 Y76.229 E.00589
;WIDTH:0.422491
G1 X105.383 Y76.224 E.06398
;WIDTH:0.444381
G1 X104.835 Y76.192 E.01832
;WIDTH:0.49181
G1 X104.538 Y76.164 E.01113
;WIDTH:0.539238
G1 X104.16 Y76.121 E.0157
G1 X104.041 Y75.962 E.0082
G1 X103.961 Y76.302 E.01441
G1 X103.888 Y76.454 E.00696
;WIDTH:0.496083
G1 X103.814 Y76.605 E.00634
;WIDTH:0.452928
G1 X103.741 Y76.756 E.00572
;WIDTH:0.415545
G1 X103.612 Y77.097 E.0113
;WIDTH:0.419999
G1 X101.778 Y81.822 E.15892
G1 X101.579 Y82.078 E.01017
G1 X101.31 Y82.18 E.00902
G1 X99.421 Y82.183 E.05923
G1 X99.147 Y82.112 E.00887
G1 X98.936 Y81.908 E.0092
G1 X96.903 Y76.85 E.17092
G1 X96.972 Y77.475 E.01972
G1 X96.945 Y78.438 E.03021
G1 X96.785 Y79.328 E.02835
G1 X96.48 Y80.138 E.02714
G1 X96.023 Y80.854 E.02663
G1 X95.433 Y81.445 E.02618
G1 X94.742 Y81.886 E.0257
G1 X93.962 Y82.171 E.02604
G1 X93.112 Y82.296 E.02694
G1 X92.496 Y82.292 E.01931
G1 X91.78 Y82.182 E.02271
G1 X91.104 Y81.946 E.02245
G1 X90.489 Y81.58 E.02244
G1 X90.044 Y81.186 E.01864
G1 X89.697 Y80.737 E.01779
G1 X89.458 Y80.286 E.016
G1 X89.354 Y79.977 E.01022
G1 X89.166 Y80.366 E.01355
G1 X88.855 Y80.827 E.01744
G1 X88.476 Y81.213 E.01696
G1 X88.053 Y81.584 E.01764
G1 X87.61 Y81.859 E.01635
G1 X86.893 Y82.124 E.02397
G1 X86.08 Y82.28 E.02596
G1 X85.146 Y82.289 E.02929
G1 X84.339 Y82.159 E.02563
G1 X83.512 Y81.859 E.02758
G1 X82.81 Y81.407 E.02618
G1 X82.213 Y80.807 E.02654
G1 X81.709 Y79.984 E.03026
G1 X81.711 Y81.617 E.0512
G1 X81.682 Y81.796 E.00569
G1 X81.502 Y82.056 E.00992
G1 X81.243 Y82.175 E.00894
G1 X79.393 Y82.183 E.05801
G1 X79.168 Y82.136 E.00721
G1 X79.027 Y82.048 E.00521
G1 X78.531 Y81.29 E.0284
G1 X77.366 Y79.382 E.07009
G1 X77.375 Y81.616 E.07005
G1 X77.292 Y81.912 E.00964
G1 X77.22 Y81.982 E.00315
M204 S1000
G1 X76.931 Y81.761 F10800
M204 S800
;TYPE:External perimeter
G1 F1200
G1 X76.809 Y81.806 E.00408
G1 X75.023 Y81.806 E.056
G1 X74.882 Y81.743 E.00484
G1 X74.835 Y81.617 E.00422
G1 X74.835 Y74.015 E.23835
G1 X74.852 Y73.938 E.00247
G1 X74.975 Y73.834 E.00505
G1 X75.023 Y73.828 E.00152
G1 X76.819 Y73.828 E.05631
G1 X76.941 Y73.873 E.00408
G1 X78.352 Y76.147 E.08391
G1 X78.6 Y76.592 E.01597
;WIDTH:0.463513
G1 X78.833 Y77.06 E.01828
G1 X78.987 Y77.539 E.0176
;WIDTH:0.426665
G1 X79.368 Y78.155 E.02311
G1 X79.368 Y77.524 E.02013
;WIDTH:0.467166
G1 X79.248 Y76.964 E.0202
G1 X79.199 Y76.461 E.01783
;WIDTH:0.419999
G1 X79.176 Y75.941 E.01632
G1 X79.171 Y74.017 E.06033
G1 X79.237 Y73.873 E.00497
G1 X79.359 Y73.828 E.00408
G1 X81.145 Y73.828 E.056
G1 X81.26 Y73.867 E.00381
G1 X81.334 Y74.017 E.00524
G1 X81.331 Y76.079 E.06465
;WIDTH:0.426433
G1 X81.333 Y76.624 E.01738
;WIDTH:0.427956
G1 X81.312 Y77.575 E.03045
G1 X81.323 Y78.477 E.02888
;WIDTH:0.457954
G1 X81.349 Y79.007 E.01831
G1 X81.332 Y79.972 E.03331
;WIDTH:0.419999
G1 X81.334 Y81.617 E.05158
G1 X81.264 Y81.764 E.0051
G1 X81.145 Y81.806 E.00396
G1 X79.393 Y81.806 E.05493
G1 X79.271 Y81.761 E.00408
G1 X77.707 Y79.216 E.09366
G1 X77.474 Y78.771 E.01575
G1 X77.132 Y77.905 E.02919
G1 X76.798 Y77.36 E.02004
G1 X76.798 Y78.032 E.02107
G1 X76.961 Y78.971 E.02988
G1 X76.992 Y79.472 E.01574
G1 X76.998 Y81.617 E.06726
G1 X76.956 Y81.707 E.00311
M204 S1000
G1 X76.961 Y81.888 F10800
;WIPE_START
G1 F8640
G1 X76.809 Y81.806 E-.04092
G1 X75.023 Y81.806 E-.41239
G1 X74.882 Y81.743 E-.03566
G1 X74.835 Y81.617 E-.03105
G1 X74.835 Y80.404 E-.27998
;WIPE_END
G1 Z.6 F720
G1 X81.768 Y78.975 F10800
G1 Z.2 F720
G1 E.8 F2100
M204 S800
;WIDTH:0.459904
G1 F1200
G1 X81.704 Y78.488 E.01703
;WIDTH:0.427956
G1 X81.697 Y77.587 E.02885
;WIDTH:0.432138
G1 X81.718 Y76.948 E.02069
G1 X81.909 Y76.146 E.02668
;WIDTH:0.419999
G1 X82.236 Y75.436 E.02451
G1 X82.699 Y74.824 E.02406
G1 X83.276 Y74.336 E.02369
G1 X83.772 Y74.058 E.01783
G1 X84.498 Y73.816 E.02399
G1 X85.315 Y73.711 E.02583
G1 X86.139 Y73.742 E.02585
G1 X86.909 Y73.907 E.02469
G1 X87.602 Y74.211 E.02373
G1 X88.24 Y74.684 E.0249
G1 X88.713 Y75.231 E.02267
G1 X89.002 Y75.739 E.01833
G1 X89.15 Y76.138 E.01334
G1 X89.411 Y77.529 E.04437
G1 X89.414 Y78.049 E.0163
